icons/mute-16.svg

<svg xmlns="http://www.w3.org/2000/svg" width="16" height="16" viewBox="0 0 16 16"><path d="M8 2.75v10.5a.751.751 0 01-1.238.57L3.473 11H1.75A1.75 1.75 0 010 9.25v-2.5C0 5.784.784 5 1.75 5h1.722l3.29-2.82A.75.75 0 018 2.75zm3.28 2.47L13 6.94l1.72-1.72a.751.751 0 011.042.018.751.751 0 01.018 1.042L14.06 8l1.72 1.72a.749.749 0 01-.326 1.275.749.749 0 01-.734-.215L13 9.06l-1.72 1.72a.749.749 0 01-1.275-.326.749.749 0 01.215-.734L11.94 8l-1.72-1.72a.749.749 0 01.326-1.275.749.749 0 01.734.215zm-7.042 1.1a.752.752 0 01-.488.18h-2a.25.25 0 00-.25.25v2.5c0 .138.112.25.25.25h2c.179 0 .352.064.488.18L6.5 11.62V4.38z"/></svg>

<svg xmlns="http://www.w3.org/2000/svg" width="16" height="16" viewBox="0 0 16 16">
  <defs/>
  <path d="M8,2.75 L8,13.25 C8,13.543 7.83,13.809 7.564,13.932 C7.298,14.054 6.984,14.011 6.762,13.82 L3.473,11 L1.75,11 C0.784,11 0,10.216 0,9.25 L0,6.75 C0,5.784 0.784,5 1.75,5 L3.472,5 L6.762,2.18 C6.984,1.989 7.298,1.946 7.564,2.068 C7.83,2.191 8,2.457 8,2.75 Z M11.28,5.22 L13,6.94 L14.72,5.22 C15.016,4.945 15.476,4.953 15.762,5.238 C16.047,5.524 16.055,5.984 15.78,6.28 L14.06,8 L15.78,9.72 C15.981,9.907 16.063,10.189 15.995,10.454 C15.928,10.72 15.72,10.928 15.454,10.995 C15.189,11.063 14.907,10.981 14.72,10.78 L13,9.06 L11.28,10.78 C11.093,10.981 10.811,11.063 10.546,10.995 C10.28,10.928 10.072,10.72 10.005,10.454 C9.937,10.189 10.019,9.907 10.22,9.72 L11.94,8 L10.22,6.28 C10.019,6.093 9.937,5.811 10.005,5.546 C10.072,5.28 10.28,5.072 10.546,5.005 C10.811,4.937 11.093,5.019 11.28,5.22 Z M4.238,6.32 C4.102,6.436 3.929,6.5 3.75,6.5 L1.75,6.5 C1.612,6.5 1.5,6.612 1.5,6.75 L1.5,9.25 C1.5,9.388 1.612,9.5 1.75,9.5 L3.75,9.5 C3.929,9.5 4.102,9.564 4.238,9.68 L6.5,11.62 L6.5,4.38 Z"/>
</svg>
